src/icons/main-caret-up.svg

<svg enable-background="new 0 0 14 9" viewBox="0 0 14 9" xmlns="http://www.w3.org/2000/svg"><path d="m13.7 7.2-5.8-6.8c-.2-.2-.5-.4-.9-.4s-.7.2-.9.4l-5.8 6.8c-.2.2-.3.4-.3.7 0 .6.5 1.1 1.2 1.1h11.7c.6 0 1.1-.5 1.1-1.1 0-.3-.1-.5-.3-.7z" fill="#4d5969"/></svg>

<?xml version="1.0" encoding="utf-8"?>
<!-- Generator: Adobe Illustrator 20.1.0, SVG Export Plug-In . SVG Version: 6.00 Build 0)  -->
<svg version="1.1" id="Layer_1" xmlns="http://www.w3.org/2000/svg" xmlns:xlink="http://www.w3.org/1999/xlink" x="0px" y="0px"
	 viewBox="0 0 14 9" style="enable-background:new 0 0 14 9;" xml:space="preserve">
<style type="text/css">
	.st0{fill:#4D5969;}
</style>
<title>HDL/Icon/Standard/caret_up</title>
<desc>Created with Sketch.</desc>
<g id="Colors">
	<g id="Main-Icons" transform="translate(-620.000000, -975.000000)">
		<g id="Caret-Up" transform="translate(602.000000, 963.000000)">
			<g id="HDL_x2F_Icon_x2F_Standard_x2F_caret_x5F_up" transform="translate(18.000000, 12.000000)">
				<path id="Path" class="st0" d="M13.7,7.2L13.7,7.2L7.9,0.4l0,0C7.7,0.2,7.4,0,7,0S6.3,0.2,6.1,0.4l0,0L0.3,7.2l0,0
					C0.1,7.4,0,7.6,0,7.9C0,8.5,0.5,9,1.2,9h11.7C13.5,9,14,8.5,14,7.9C14,7.6,13.9,7.4,13.7,7.2z"/>
			</g>
		</g>
	</g>
</g>
</svg>
